64x64/apps/steam_icon_220.svg

<svg height="64" width="64" xmlns="http://www.w3.org/2000/svg"><path d="m4.05 32c-.011.334-.05.662-.05 1 0 15.432 12.568 28 28 28 15.431 0 28-12.568 28-28 0-.338-.039-.666-.05-1-.536 14.968-12.858 27-27.95 27-15.094 0-27.416-12.032-27.95-27z" opacity=".2"/><path d="m32 4c-15.432 0-28 12.57-28 28 0 15.432 12.568 28 28 28 15.431 0 28-12.568 28-28 0-15.43-12.57-28-28-28z" fill="#f37b21"/><path d="m32 13a20 20 0 0 0 -20 20 20 20 0 0 0 20 20 20 20 0 0 0 20-20 20 20 0 0 0 -20-20zm-8 6h6.645l8.935 21.81 4.672-1.876 1.49 3.712-8.351 3.354v-.002l-.006.002-5.838-14.232-10.211 15.232-3.336-2.008 11.713-17.699-1.763-4.293h-3.95z" opacity=".2"/><path d="m32 12a20 20 0 0 0 -20 20 20 20 0 0 0 20 20 20 20 0 0 0 20-20 20 20 0 0 0 -20-20zm-8 6h6.645l8.935 21.81 4.672-1.876 1.49 3.712-8.351 3.354v-.002l-.006.002-5.838-14.232-10.211 15.232-3.336-2.008 11.713-17.699-1.763-4.293h-3.95z" fill="#f4f4f7"/><path d="m32 4c-15.432 0-28 12.57-28 28 0 .338.039.666.05 1 .535-14.966 12.856-27 27.95-27s27.416 12.033 27.95 27c.012-.334.05-.662.05-1 0-15.43-12.568-28-28-28z" fill="#f4f4f7" opacity=".2"/><circle cx="47" cy="48" opacity=".2" r="15"/><circle cx="47" cy="47" fill="#42a1cd" r="15"/><path d="m47 40s-.945-.02-1.93.498c-.948.498-1.98 1.744-2.056 3.502h2.677c.13-1.185 1.309-1.2 1.309-1.2s1.334 0 1.334 1.4c0 .738-.187 1.152-.543 1.618-.356.467-.923.936-1.59 1.461-.666.525-1.432 1.106-2.076 1.951a5.557 5.557 0 0 0 -1.125 3.37v1.4h8v-3h-4.865c.041-.062.026.043.074-.02.356-.466.923-.934 1.59-1.459.666-.525 1.432-1.107 2.076-1.953a5.557 5.557 0 0 0 1.125-3.368c0-1.866-1.086-3.184-2.07-3.701-.985-.518-1.93-.499-1.93-.499z" fill="#f4f4f7" fill-rule="evenodd"/></svg>

<svg xmlns="http://www.w3.org/2000/svg" width="64" height="64" version="1"><path style="opacity:.2" d="M4.05 32c-.011.334-.05.662-.05 1 0 15.432 12.568 28 28 28 15.431 0 28-12.568 28-28 0-.338-.039-.666-.05-1C59.414 46.968 47.092 59 32 59 16.906 59 4.584 46.968 4.05 32z"/><path style="fill:#f37b21" d="M32 4C16.568 4 4 16.57 4 32c0 15.432 12.568 28 28 28 15.431 0 28-12.568 28-28C60 16.57 47.43 4 32 4z"/><path style="opacity:.2" d="M32 13a20 20 0 0 0-20 20 20 20 0 0 0 20 20 20 20 0 0 0 20-20 20 20 0 0 0-20-20zm-8 6H30.645l8.935 21.81 4.672-1.876 1.49 3.712L37.391 46v-.002l-.006.002-5.838-14.232L21.336 47 18 44.992l11.713-17.699L27.95 23H24v-4z"/><path style="fill:#f4f4f7" d="M32 12a20 20 0 0 0-20 20 20 20 0 0 0 20 20 20 20 0 0 0 20-20 20 20 0 0 0-20-20zm-8 6H30.645l8.935 21.81 4.672-1.876 1.49 3.712L37.391 45v-.002l-.006.002-5.838-14.232L21.336 46 18 43.992l11.713-17.699L27.95 22H24v-4z"/><path style="opacity:.2;fill:#f4f4f7" d="M32 4C16.568 4 4 16.57 4 32c0 .338.039.666.05 1C4.585 18.034 16.906 6 32 6c15.094 0 27.416 12.033 27.95 27 .012-.334.05-.662.05-1C60 16.57 47.432 4 32 4z"/><circle style="opacity:.2" cx="47" cy="48" r="15"/><circle style="fill:#42a1cd" cx="47" cy="47" r="15"/><path style="fill:#f4f4f7;fill-rule:evenodd" d="M47 40s-.945-.02-1.93.498c-.948.498-1.98 1.744-2.056 3.502h2.677c.13-1.185 1.309-1.2 1.309-1.2s1.334 0 1.334 1.4c0 .738-.187 1.152-.543 1.618-.356.467-.923.936-1.59 1.461-.666.525-1.432 1.106-2.076 1.951A5.557 5.557 0 0 0 43 52.6V54h8v-3h-4.865c.041-.062.026.043.074-.02.356-.466.923-.934 1.59-1.459.666-.525 1.432-1.107 2.076-1.953A5.557 5.557 0 0 0 51 44.2c0-1.866-1.086-3.184-2.07-3.701C47.945 39.981 47 40 47 40z"/></svg>
